X:1
T:Ce qui pour moy en ce monde
T:Claude Goudimel
T:Source : Livre VIII de 25 chansons nouvelles à 4 parties---Paris---N.du Chemin---1550. Editor : André Vierendeels (26/03/18) Notes : Original clefs : C1, C3, C3, F4 Original note nalues have been quartered in 3-beat measures Original note values have been halved Editorial accidentals above the staff Dotted brackets indicate black notes
T:Ce qui pour moy en ce monde
T:©
T:©
T:©
T:©
T:©
C:Claude Goudimel
Z:©
%%score [ 1 [ 2 3 ] 4 ]
L:1/8
Q:1/4=120
M:3/4
K:F
V:1 treble nm="Soprano" snm="S"
V:2 treble-8 nm="Tenor 1" snm="T 1"
V:3 treble-8 nm="Tenor 2" snm="T 2"
V:4 bass nm="Bass" snm="B"
V:1
 A2 A2 A2 | F4 F2 | B4 A2 | G2 F4 |[M:2/2] E8 | z2 A2 c2 c2 | F2 F2 G2 A2 | B2 B2 A4 | %8
w: Ce qui pour|moy en|ce mon-|de fut|mis,|ne doibt il|pas à moy du|tout se di-|
w: Doibt il pre-|ster l'o-|reil- le'aux|en- ne-|mis,|qui à mon|bien sont prest à|con- tre- di-|
 F2 E2 F2 F2 | C2 G2 A3 G | F2 E2 D4 |1[M:2/4] C4 :|2[M:2/2] C4 z4 || c2 cB A2 F2 | z2 G2 G2 A2 | %15
w: re? Ne doibt il|pas à moy du|tout se di-|re,|re?|Non, non, m'a- my- e,|il ne s'en|
w: re? Qui à mon|bien sont prest de|con- tre- di|_||||
 G2 F2 G2 Ec | c2 d2 cA c2 | AA B2 GG A2 | F2 c2 c2 c2 | A2 c2 B3 A | G2 F2 E2 c2 | c2 c2 AGAB | %22
w: fault que ri- re, il|ne s'en fault que ri-|re, que ri- re, que ri-|re, ce sont ia-|lous dont ne te|doibtz cha- loir, ce|sont ia- loux _ _ _|
w: |||||||
 c2 c2 d3 c | B2 A2 G2 G2 | A3 G A2 F2 | E2 E2 F3 F | G2 A3 G G2 | A2 A2 B4- | B2 B2 A4 | %29
w: _ dont ne te|doibtz cha- loir leur|veult tu bien ser-|vir, leur veult tu|bien ser- * *|vir, de grand|_ mar- ty-|
w: |||||||
 F2 B2 AGFE | F2 F2 E4- | E8 | z4 F2 FG | AB c4 A2 | G3 A B2 B2 | A4 z4 | z2 C2 CDEF | G2 A3 G F2 | %38
w: re, ay- me _ _ _|_ tous- iours|_|ne chan- *|* * * ge|ton _ _ vou-|loir,|ne chan- * * *|ge ton _ _|
w: |||||||||
 E2 F4 E2 | F8 |] %40
w: vou- * *|loir.|
w: ||
V:2
 f2 f2 f2 | d4 d2 | f4 f2 | e2 d4 |[M:2/2] c3 B/A/ G2 G2 | A2 A2 G4 | z2 A2 c2 c2 | F2 f4 e2 | %8
w: Ce qui pour|moy en|ce mon-|de fut|mis _ _ _ ne|doibt il pas,|ne doibt il|pas à moy|
w: Doibt il pre-|ster l'o-|reil- le'aux|en- ne-|mis, _ _ _ qui|à mon bien,|qui à mon|bien, qui à|
 d2 c2 z2 c2 | c2 c2 AAAA | d2 c2 B4 |1[M:2/4] G4 :|2[M:2/2] G4 z4 || z8 | f2 fe d2 ce | %15
w: du tout, ne|doibt il pas à moy du|tout se di-|re,|re?||Non, non m'a- my- e, il|
w: mon bien, qui|à mon bien sont prest de|con- tre- di-|||||
 e2 f2 dd g2 | c2 f2 ff f2- | f2 d2 e2 cc | dffe f2 c2 | z2 f2 f2 f2 | d2 B2 c3 d | e f2 e f2 f2 | %22
w: ne s'en fault que ri-|re, il ne s'en fault|_ que ri- re, il|ne s'en fault sue ri- re,|ce sont ia-|loux dont ne te|doibt cha- moir, ce sont|
w: |||||||
 f2 f2 d2 f2 | gd f4 e2 | f4 z2 A2 | c3 B c2 A2 | G2 z2 z4 | f4 g4- | g2 f2 f4 | d2 f2 fedc | %30
w: ia- loux dont ne|te doibtz cha- *|loir, leur|veult tu bien ser-|vir,|de grand|_ mar- ty-|re, ay- me _ _ _|
w: ||||||||
 d2 d2 c2 c2 | cdef g2 e2 | d2 d2 c4 | z4 c2 cd | ef g4 d2 | f2 f2 c2 z2 | c2 cd ef g2 | %37
w: _ tous- iours ne|chan- * * * * ge|ton vou- loir,|ne chan- *|* * * ge|ton vou- loir,|ne chan- * * * *|
w: |||||||
 e2 fe dc c2- | c2 B2 c4 | c8 |] %40
w: ge ton _ _ _ _|_ vou- *|loir.|
w: |||
V:3
 c2 c2 c2 | B4 B2 | d4 c2 | c2 A4 |[M:2/2] A4 z2 E2 | F2 F2 C2 c2 | d2 f2 f2 e2 | d6 c2 | %8
w: Ce qui pour|moy en|ce mon-|de fut|mis, ne|doibt il pas à|moy du tout se|di- re?|
w: Doibt il pre-|ster l'o-|reil- le'aux|en- ne-|mis, qui|à mon bien sont|prest de con- tre-|di- re?|
 z2 G2 A2 A2 | G2 G2 F2 D2 | A3 G F4 |1[M:2/4] E4 :|2[M:2/2] E4 c2 cB || A2 FB c2 c2 | %14
w: Ne doibt il|pas à moy du|tout se di-|re,|re? Non, non, m'a-|my- e, il ne s'en|
w: Qui à mon|bien sont prest de|con- tre- di-||||
 dB c2 G2 z2 | c2 AA B2 G2 | A2 F2 c2 c2 | d2 BB c2 AA | B2 G2 z2 A2 | c2 c2 d3 c | %20
w: fault que ri- re,|il ne s'en fault que|ri- re, il ne|s'en fault que ri- re, que|ri- re, ce|sont ia- loux dont|
w: ||||||
 BA AG/F/ G2 F2 | G2 c2 c2 c2 | A2 c2 B3 A | G2 F2 c4 | z2 A2 A3 F | G2 G2 A2 c2 | c2 c2 B2 B2 | %27
w: ne _ te _ _ doibt cha-|loir, ce sont ia-|loux dont ne te|doibt cha- loir,|leur veult tu|bien ser- vir, leur|veult tu bien ser-|
w: |||||||
 A2 c2 _e4- | e2 d2 c4 | B2 B2 F4 | B4 G2 G2 | A2 G2 c4 | B2 A3 G AB | c4 z2 C2 | CDEF G2 F2 | %35
w: vir de grand|_ mar- ty-|re, ay- me|tous- iours, ne|chan- ge ton|vou- loir, _ _ _|_ ne|chan- * * * * ge|
w: ||||||||
 A2 A2 G2 F2 | FGAB c2 G2 | c2 c2 A2 A2 | G2 F2 G2 G2 | F8 |] %40
w: ton vou- loir, ne|chan- * * * * ge|ton vou- loir, ne|chan- ge ton vou-|loir.|
w: |||||
V:4
 F,2 F,2 F,2 | B,,4 B,,2 | B,,4 F,2 | C,2 D,4 |[M:2/2] A,,2 A,,2 C,2 C,2 | F,,2 F,2 F,2 E,2 | %6
w: Ce qui pour|moy en|ce mon-|de fut|mis, ne doibt il|pas à moy du|
w: Doibt il pre-|ster l'o-|reil- le'aux|en- ne|mis, qui à mon|bien sont prest de|
 D,2 D,2 C,4 | B,,A,,B,,C, D,2 A,,2 | B,,2 C,2 F,,2 F,2 | F,2 E,2 D,4- | D,2 A,,2 B,,4 |1 %11
w: tout se di-|* * * * * re?|Ne doibt il pas|à moy tout|_ se di-|
w: con- tre- di-|* * * * re? Qui|à mon bien sont|prest de con-|* tre- di|
[M:2/4] C,4 :|2[M:2/2] C,8 || z4 F,2 F,E, | D,2 C,2 z2 C,2 | C,2 D,2 B,,B,, C,2 | %16
w: re,|re?|Non, mon m'a-|my- e, il|ne s'en fault que ri-|
w: _|||||
 A,,A,, B,,2 F,,2 F,2 | F,2 G,2 E,E, F,2 | B,,D, C,2 F,,2 F,2 | F,2 F,2 B,,3 B,, | %20
w: re, que ri- re, il|ne s'en fault que ri-|re, que ri- re, ce|sont ia- loux, ce|
w: ||||
 B,,2 D,2 C,C,A,,F,, | C,2 C,2 F,,4- | F,,4 z4 | z4 z2 C,2 | F,3 E, F,2 D,2 | C,4 z2 F,,2 | %26
w: sont _ a- loux dont ne|doibtz cha- loir,|_|leur|veulx tu bien ser-|vir leur|
w: ||||||
 C,3 C, D,2 E,2 | F,2 F,2 _E,4- | E,2 B,,2 F,4 | B,,4 z2 B,,2 | B,,2 B,,2 C,4 | z2 C,2 C,D,E,F, | %32
w: veult tu bien ser-|vir de grand|_ mar- ty-|re, ay-|me tous- iours|ne chan- * * *|
w: ||||||
 G,2 D,2 F,2 F,2 | C,2 z F,, F,,G,,A,,B,, | C,2 C,2 G,,2 B,,2 | F,,2 F,2 E,2 D,2 | F,2 F,2 C,4 | %37
w: * ge ton vou-|loir, ne chan- * * *|* ge ton vou-|loir, ne chan- ge|ton vou- loir,|
w: |||||
 z2 F,,2 F,,G,,A,,B,, | C,2 D,2 C,2 C,2 | F,,8 |] %40
w: ne chan- * * *|* ge ton vou-|loir.|
w: |||

